public/avatar/hat/297.svg

<svg xmlns:xlink="http://www.w3.org/1999/xlink" height="92.9" width="100.7" xmlns="http://www.w3.org/2000/svg"><g transform="translate(38.65 49.75)"><use height="9.95" transform="matrix(-1 0 0 1 -12.3 14.25)" width="5.2" xlink:href="#a"/><use height="10.25" transform="matrix(-1 0 0 1 -10.5 14.05)" width="6.85" xlink:href="#b"/><use height="8.6" transform="matrix(-1 0 0 1 -11.75 14.8)" width="4.75" xlink:href="#c"/><use height="4" transform="matrix(-1 0 0 1 -11.8 19.35)" width="4.65" xlink:href="#d"/><use height="9.95" transform="translate(11.8 14.25)" width="5.2" xlink:href="#a"/><use height="10.25" transform="translate(10 14.05)" width="6.85" xlink:href="#b"/><use height="8.6" transform="translate(11.25 14.8)" width="4.75" xlink:href="#c"/><use height="4" transform="translate(11.3 19.35)" width="4.65" xlink:href="#d"/><use height="16.1" transform="translate(-21.35 3.45)" width="43.2" xlink:href="#e"/><use height="14.15" transform="translate(-20.25 4.8)" width="41.25" xlink:href="#f"/><use height="14.15" transform="translate(-20.25 4.8)" width="41.25" xlink:href="#g"/><use height="17.55" transform="translate(-15.9 -6.05)" width="30.25" xlink:href="#h"/><use height="16.15" transform="translate(-14.45 -5.2)" width="27.65" xlink:href="#i"/><use height="6.55" transform="translate(-14.05 9.1)" width="25.8" xlink:href="#j"/><use height="16.1" transform="translate(-11.55 -5.15)" width="24.8" xlink:href="#k"/><use height="6.25" transform="translate(-12.6 -4.4)" width="9.6" xlink:href="#l"/></g><defs><use height="9.95" width="5.2" xlink:href="#m" id="a"/><use height="10.25" width="6.85" xlink:href="#n" id="b"/><use height="8.6" width="4.75" xlink:href="#o" id="c"/><use height="4" width="4.65" xlink:href="#p" id="d"/><use height="16.1" width="43.2" xlink:href="#q" id="e"/><use height="14.15" width="41.25" xlink:href="#r" id="f"/><use height="14.15" width="41.25" xlink:href="#s" id="g"/><use height="17.55" width="30.25" xlink:href="#t" id="h"/><use height="16.15" width="27.65" xlink:href="#u" id="i"/><use height="6.55" width="25.8" xlink:href="#v" id="j"/><use height="16.1" width="24.8" xlink:href="#w" id="k"/><use height="6.25" width="9.6" xlink:href="#x" id="l"/><path d="m0 0 .55 1.1.6 2.05q.75.85 2.15.2-.95.9-2.1.6-.75-.2-1.05-2.1L0 0m3.25 3.1.45-1.3.1-.8.85.85q-.4 1-1.4 1.25" id="p" fill="#fff" fill-rule="evenodd"/><path d="M12.6 1.05q1-.1 1.75 1.25v.1q1.55 5.75-2.1 10.65-1.2 1.6-3.2 2.45-2.05.9-3.55.5v-.1l.2-.3q2.05-.95 3-2.35-1.5 1.15-3.75 1.25-2.8.1-4.85-1.75-.3-.3.4-.3 3 .3 5.4-2-2.5.15-4.25-1.55L.4 7.2l.05-.4.4-.1q4 .8 6.65-.35 2-.85 2.35-2.05 1.35-3.15 2.75-3.25M41.4 7l.35.1.1.35q-.6 2.2-4.45 1.85 2.4 2.3 5.4 2l.4.3q.1.3-.25.4l-.1.05q-5.3 2.3-8.25.05 1 1.35 2.95 2.3l.25.35-.05.1q0 .3-.35.3-3.95-.05-6.35-3.3-2.45-3.25-2.45-7.9 0-1.45.3-2.6L28.6.4l.25-.4q.6-.3 3 3.45l.05.1q.35 1.35 2.6 2.6 2.95 1.65 6.9.85" id="q" fill-rule="evenodd"/><path d="M11.9 9.05q-1.7 4.2-6.05 5.1 3.1-1.45 3.1-4.15Q5.1 14.1 0 11.6q1.8.2 4.2-1 2.45-1.15 2.5-2.35Q2.4 9 .2 6.1q4.1 1 6.8-.35 1.95-1 2.3-2.4l.95-2.1q1.15-1.7 2.25.25.75 4.05-.6 7.55M28.5.9q-.7-1.8.6 0L30.55 3q2.9 4.6 9.25 3.3-1.45 1.35-5.2.9.3 1.5 2.65 2.45 2.15.9 4 .7-4.6 2-9-1.05.55 2.45 3.85 4-4.75-.8-6.8-5.15Q27.55 4.5 28.5.9" id="r" fill="#330037" fill-rule="evenodd"/><path d="M4.1 1.85q1.65-3.3 1.1-.7-.3 1.7-1.05 2.6-.4.45-.2-.75.25-1.2-1.1.25-3.15 1.85-.75-1 .25-.25-1.45.4-1.35.55.2-.55L3.35.2q.05.5-1 1.55L3.85.7q1-1 .8-.5-.55 1.35-.55 1.65m18.85.95q-.1-.65.85.55.75.95.3-.05l1.25 1.25q-1.7-1.55-.3.3 1 1.65.7 1.7-.5.1-1.55-1.4-.95-1.35-1.25-2.35" id="v" fill="#87328d" fill-rule="evenodd"/><path d="M5.05 1.9q.65 4.8-1.7 7.2-.95.85-1.95.85-.85 0-1.25-4-.35-3.85.1-5L.5 0l3.95 1.95.6-.05" fill="#2b0900" fill-rule="evenodd" id="m"/><path d="M4.55 1.7Q5 4.9 4.3 6.6q-.85 2.2-2.65 2Q.15 8.4 0 5.35l.15-3 1.9 1.35-.1 1.9q0 1.85.55 1.55 1.55-.8 1.5-3-.05-1.55-.7-2.9l-.25-.4L1.6 0l.65.2.8.65 1.5.85" fill="#f90" fill-rule="evenodd" id="o"/><path d="M0 6.25q1.2-2.7 5.1-4.8 3.65-2 4.5-1.2-5.2 2.55-9.6 6" fill="#fcd0f2" fill-rule="evenodd" id="x"/><g id="n" fill="#953c00" fill-rule="evenodd"><path d="M6.85 2.1q-3.2 8.15-3.6 8.15-2.5 0-3.05-4.05-.5-3.45.25-5.05.4-.8.95-1.05l.5-.1 4.35 2.15.6-.05"/><path d="M2.95.4Q6.1.4 5.9 4.35 5.75 8.3 3.3 8.3q-1.5 0-1.9-3.95Q1 .4 2.95.4"/></g><g id="s" fill="#0e000f" fill-rule="evenodd"><path d="M34.6 7.2q.3 1.5 2.65 2.45 2.15.9 4 .7-3.1.85-7-.95-4.05-1.85-5-4.95l-.8-3.3.05-.25q-.7-1.8.6 0L30.55 3q2.9 4.6 9.25 3.3-1.45 1.35-5.2.9M5.85 14.15q3.2-1.2 4.95-5.95 1.4-3.9 1-5.4-.2-.85.25-.9.4-.05.65.4.35 2.3-.3 5.1-1.25 5.65-6.55 6.75"/><path d="M0 11.6q3.15.45 5.55-.45L9.3 9q.2 1.5-2.75 2.85-3.3 1.5-6.55-.25m.2-5.5q3.65 1.85 6.7 2.1l-3.1.15Q1.7 7.8.2 6.1"/></g><g id="t" fill="#560650" fill-rule="evenodd"><path d="M26.15 13.55q5.4 4.55.6 3.95-4.3-2.1-12.9-1.05h.05l-3.15-.2q-1-.8-1.35-3.55-.1-.45.4-.55 11.6-2.65 16.35 1.4"/><path d="M23.75 1.05Q26.1 2 28 4.8q3.5 5.4 1.6 7.9-.6.8-1.7 1.2l-.95.25-.65-.05q-1.5-1.8-7.95-2.05-3.75-.15-9.35 1.2-5.2 1.25-4.75 1.4-1.9.05-3.2-1.1-2.65-2.3 1.4-7.7Q7.4-.2 15.2 0q5.9 0 8.55 1.05"/></g><g id="u" fill="#ff20ee" fill-rule="evenodd"><path d="M23.9 12.8q1.75 1.05 2.35 2.5.65 1.45-1.45.45-5.05-1.85-12.3-.95l-2.4.05q-.8-.45-1.1-2.8 9.75-2.25 14.9.75"/><path d="M24.95 12.5q-.6-1.35-2.85-2.65-3-1.7-6.55-1.9-8.9-.5-12.55 5-1.35-.15-2.2-.9-2.1-1.9 1.25-6.65Q6.65-.3 13.75 0q5.5 0 7.9.95 2.1.85 3.85 3.4 3.3 5.1 1.5 7.15-.55.65-1.5.9l-.55.1"/><path d="M14.45 8.85Q21 9 24.1 12.3q-8.85-3.5-20.35.45 3.75-4 10.7-3.9"/></g><g id="w" fill="#ca00bb" fill-rule="evenodd"><path d="M13.1 10.95q5.2.85 7.45 1.9 2.2 1 2.85 2.45.6 1.4-1.5.4-2.8-1-6.45-1.2 1.9-.85 1.5-1.8-.5-1.1-3.85-1.75"/><path d="M21.8 3.2q.8.9 2.45 4.15.9 1.7.3 3.5Q23.9 12.8 22 12.6q-.45-1.4-2.75-2.7-2.45-1.4-5.55-1.85Q5.6 6.9 0 13q1.45-2.7 7.85-6.7Q13.4 2.85 13.5 0q5.2-.3 8.3 3.2"/><path d="M21.2 12.25Q15.9 10.1 9.65 10.7 18.5 9.15 7.9 9.1l4.8-.3q5.4.35 8.5 3.45"/></g></defs></svg>

<?xml version="1.0" encoding="UTF-8" standalone="no"?>
<svg xmlns:xlink="http://www.w3.org/1999/xlink" height="92.9px" width="100.7px" xmlns="http://www.w3.org/2000/svg">
  <g transform="matrix(1.0, 0.0, 0.0, 1.0, 38.65, 49.75)">
    <use height="9.95" transform="matrix(-1.0, 0.0, 0.0, 1.0, -12.3, 14.25)" width="5.2" xlink:href="#sprite0"/>
    <use height="10.25" transform="matrix(-1.0, 0.0, 0.0, 1.0, -10.5, 14.05)" width="6.85" xlink:href="#sprite1"/>
    <use height="8.6" transform="matrix(-1.0, 0.0, 0.0, 1.0, -11.75, 14.8)" width="4.75" xlink:href="#sprite2"/>
    <use height="4.0" transform="matrix(-1.0, 0.0, 0.0, 1.0, -11.8, 19.35)" width="4.65" xlink:href="#sprite3"/>
    <use height="9.95" transform="matrix(1.0, 0.0, 0.0, 1.0, 11.8, 14.25)" width="5.2" xlink:href="#sprite0"/>
    <use height="10.25" transform="matrix(1.0, 0.0, 0.0, 1.0, 10.0, 14.05)" width="6.85" xlink:href="#sprite1"/>
    <use height="8.6" transform="matrix(1.0, 0.0, 0.0, 1.0, 11.25, 14.8)" width="4.75" xlink:href="#sprite2"/>
    <use height="4.0" transform="matrix(1.0, 0.0, 0.0, 1.0, 11.3, 19.35)" width="4.65" xlink:href="#sprite3"/>
    <use height="16.1" transform="matrix(1.0, 0.0, 0.0, 1.0, -21.35, 3.45)" width="43.2" xlink:href="#sprite4"/>
    <use height="14.15" transform="matrix(1.0, 0.0, 0.0, 1.0, -20.25, 4.8)" width="41.25" xlink:href="#sprite5"/>
    <use height="14.15" transform="matrix(1.0, 0.0, 0.0, 1.0, -20.25, 4.8)" width="41.25" xlink:href="#sprite6"/>
    <use height="17.55" transform="matrix(1.0, 0.0, 0.0, 1.0, -15.9, -6.05)" width="30.25" xlink:href="#sprite7"/>
    <use height="16.15" transform="matrix(1.0, 0.0, 0.0, 1.0, -14.45, -5.2)" width="27.65" xlink:href="#sprite8"/>
    <use height="6.55" transform="matrix(1.0, 0.0, 0.0, 1.0, -14.05, 9.1)" width="25.8" xlink:href="#sprite9"/>
    <use height="16.1" transform="matrix(1.0, 0.0, 0.0, 1.0, -11.55, -5.15)" width="24.8" xlink:href="#sprite10"/>
    <use height="6.25" transform="matrix(1.0, 0.0, 0.0, 1.0, -12.6, -4.4)" width="9.6" xlink:href="#sprite11"/>
  </g>
  <defs>
    <g id="sprite0" transform="matrix(1.0, 0.0, 0.0, 1.0, 0.0, 0.0)">
      <use height="9.95" transform="matrix(1.0, 0.0, 0.0, 1.0, 0.0, 0.0)" width="5.2" xlink:href="#shape0"/>
    </g>
    <g id="shape0" transform="matrix(1.0, 0.0, 0.0, 1.0, 0.0, 0.0)">
      <path d="M5.05 1.9 Q5.7 6.7 3.35 9.1 2.4 9.95 1.4 9.95 0.55 9.95 0.15 5.95 -0.2 2.1 0.25 0.95 L0.5 0.0 4.45 1.95 5.05 1.9" fill="#2b0900" fill-rule="evenodd" stroke="none"/>
    </g>
    <g id="sprite1" transform="matrix(1.0, 0.0, 0.0, 1.0, 0.0, 0.0)">
      <use height="10.25" transform="matrix(1.0, 0.0, 0.0, 1.0, 0.0, 0.0)" width="6.85" xlink:href="#shape1"/>
    </g>
    <g id="shape1" transform="matrix(1.0, 0.0, 0.0, 1.0, 0.0, 0.0)">
      <path d="M6.85 2.1 Q3.65 10.25 3.25 10.25 0.75 10.25 0.2 6.2 -0.3 2.75 0.45 1.15 0.85 0.35 1.4 0.1 L1.9 0.0 6.25 2.15 6.85 2.1" fill="#953c00" fill-rule="evenodd" stroke="none"/>
      <path d="M2.95 0.4 Q6.1 0.4 5.9 4.35 5.75 8.3 3.3 8.3 1.8 8.3 1.4 4.35 1.0 0.4 2.95 0.4" fill="#953c00" fill-rule="evenodd" stroke="none"/>
    </g>
    <g id="sprite2" transform="matrix(1.0, 0.0, 0.0, 1.0, 0.0, 0.0)">
      <use height="8.6" transform="matrix(1.0, 0.0, 0.0, 1.0, 0.0, 0.0)" width="4.75" xlink:href="#shape2"/>
    </g>
    <g id="shape2" transform="matrix(1.0, 0.0, 0.0, 1.0, 0.0, 0.0)">
      <path d="M4.55 1.7 Q5.0 4.9 4.3 6.6 3.45 8.8 1.65 8.6 0.15 8.4 0.0 5.35 L0.15 2.35 2.05 3.7 1.95 5.6 Q1.95 7.45 2.5 7.15 4.05 6.35 4.0 4.15 3.95 2.6 3.3 1.25 L3.05 0.85 1.6 0.0 2.25 0.2 3.05 0.85 4.55 1.7" fill="#ff9900" fill-rule="evenodd" stroke="none"/>
    </g>
    <g id="sprite3" transform="matrix(1.0, 0.0, 0.0, 1.0, 0.0, 0.0)">
      <use height="4.0" transform="matrix(1.0, 0.0, 0.0, 1.0, 0.0, 0.0)" width="4.65" xlink:href="#shape3"/>
    </g>
    <g id="shape3" transform="matrix(1.0, 0.0, 0.0, 1.0, 0.0, 0.0)">
      <path d="M0.0 0.0 L0.55 1.1 1.15 3.15 Q1.9 4.0 3.3 3.35 2.35 4.25 1.2 3.95 0.45 3.75 0.15 1.85 L0.0 0.0" fill="#ffffff" fill-rule="evenodd" stroke="none"/>
      <path d="M3.25 3.1 L3.7 1.8 3.8 1.0 4.65 1.85 Q4.25 2.85 3.25 3.1" fill="#ffffff" fill-rule="evenodd" stroke="none"/>
    </g>
    <g id="sprite4" transform="matrix(1.0, 0.0, 0.0, 1.0, 0.0, 0.0)">
      <use height="16.1" transform="matrix(1.0, 0.0, 0.0, 1.0, 0.0, 0.0)" width="43.2" xlink:href="#shape4"/>
    </g>
    <g id="shape4" transform="matrix(1.0, 0.0, 0.0, 1.0, 0.0, 0.0)">
      <path d="M12.6 1.05 Q13.6 0.95 14.35 2.3 L14.35 2.4 Q15.9 8.15 12.25 13.05 11.05 14.65 9.05 15.5 7.0 16.4 5.5 16.0 L5.5 15.9 5.7 15.6 Q7.75 14.65 8.7 13.25 7.2 14.4 4.95 14.5 2.15 14.6 0.1 12.75 -0.2 12.45 0.5 12.45 3.5 12.75 5.9 10.45 3.4 10.6 1.65 8.9 L0.4 7.2 0.45 6.8 0.85 6.7 Q4.85 7.5 7.5 6.35 9.5 5.5 9.85 4.3 11.2 1.15 12.6 1.05" fill="#000000" fill-rule="evenodd" stroke="none"/>
      <path d="M41.4 7.0 L41.75 7.1 41.85 7.45 Q41.25 9.65 37.4 9.3 39.8 11.6 42.8 11.3 L43.2 11.6 Q43.3 11.9 42.95 12.0 L42.85 12.05 Q37.55 14.35 34.6 12.1 35.6 13.45 37.55 14.4 L37.8 14.75 37.75 14.85 Q37.75 15.15 37.4 15.15 33.45 15.1 31.05 11.85 28.6 8.6 28.6 3.95 28.6 2.5 28.9 1.35 L28.6 0.4 28.85 0.0 Q29.45 -0.3 31.85 3.45 L31.9 3.55 Q32.25 4.9 34.5 6.15 37.45 7.8 41.4 7.0" fill="#000000" fill-rule="evenodd" stroke="none"/>
    </g>
    <g id="sprite5" transform="matrix(1.0, 0.0, 0.0, 1.0, 0.0, 0.0)">
      <use height="14.15" transform="matrix(1.0, 0.0, 0.0, 1.0, 0.0, 0.0)" width="41.25" xlink:href="#shape5"/>
    </g>
    <g id="shape5" transform="matrix(1.0, 0.0, 0.0, 1.0, 0.0, 0.0)">
      <path d="M11.9 9.05 Q10.2 13.25 5.85 14.15 8.95 12.7 8.95 10.0 5.1 14.1 0.0 11.6 1.8 11.8 4.2 10.6 6.65 9.45 6.7 8.25 2.4 9.0 0.2 6.1 4.3 7.1 7.0 5.75 8.95 4.75 9.3 3.35 L10.25 1.25 Q11.4 -0.45 12.5 1.5 13.25 5.55 11.9 9.05" fill="#330037" fill-rule="evenodd" stroke="none"/>
      <path d="M28.5 0.9 Q27.8 -0.9 29.1 0.9 L30.55 3.0 Q33.45 7.6 39.8 6.3 38.35 7.65 34.6 7.2 34.9 8.7 37.25 9.65 39.4 10.55 41.25 10.35 36.65 12.35 32.25 9.3 32.8 11.75 36.1 13.3 31.35 12.5 29.3 8.15 27.55 4.5 28.5 0.9" fill="#330037" fill-rule="evenodd" stroke="none"/>
    </g>
    <g id="sprite6" transform="matrix(1.0, 0.0, 0.0, 1.0, 0.0, 0.0)">
      <use height="14.15" transform="matrix(1.0, 0.0, 0.0, 1.0, 0.0, 0.0)" width="41.25" xlink:href="#shape6"/>
    </g>
    <g id="shape6" transform="matrix(1.0, 0.0, 0.0, 1.0, 0.0, 0.0)">
      <path d="M34.6 7.2 Q34.9 8.7 37.25 9.65 39.4 10.55 41.25 10.35 38.15 11.2 34.25 9.4 30.2 7.55 29.25 4.45 L28.45 1.15 28.5 0.9 Q27.8 -0.9 29.1 0.9 L30.55 3.0 Q33.45 7.6 39.8 6.3 38.35 7.65 34.6 7.2" fill="#0e000f" fill-rule="evenodd" stroke="none"/>
      <path d="M5.85 14.15 Q9.05 12.95 10.8 8.2 12.2 4.3 11.8 2.8 11.6 1.95 12.05 1.9 12.45 1.85 12.7 2.3 13.05 4.6 12.4 7.4 11.15 13.05 5.85 14.15" fill="#0e000f" fill-rule="evenodd" stroke="none"/>
      <path d="M0.0 11.6 Q3.15 12.05 5.55 11.15 L9.3 9.0 Q9.5 10.5 6.55 11.85 3.25 13.35 0.0 11.6" fill="#0e000f" fill-rule="evenodd" stroke="none"/>
      <path d="M0.2 6.1 Q3.85 7.95 6.9 8.2 L3.8 8.35 Q1.7 7.8 0.2 6.1" fill="#0e000f" fill-rule="evenodd" stroke="none"/>
    </g>
    <g id="sprite7" transform="matrix(1.0, 0.0, 0.0, 1.0, 0.0, 0.0)">
      <use height="17.55" transform="matrix(1.0, 0.0, 0.0, 1.0, 0.0, 0.0)" width="30.25" xlink:href="#shape7"/>
    </g>
    <g id="shape7" transform="matrix(1.0, 0.0, 0.0, 1.0, 0.0, 0.0)">
      <path d="M26.15 13.55 Q31.55 18.1 26.75 17.5 22.45 15.4 13.85 16.45 L13.9 16.45 10.75 16.25 Q9.75 15.45 9.4 12.7 9.3 12.25 9.8 12.15 21.4 9.5 26.15 13.55" fill="#560650" fill-rule="evenodd" stroke="none"/>
      <path d="M23.75 1.05 Q26.1 2.0 28.0 4.8 31.5 10.2 29.6 12.7 29.0 13.5 27.9 13.9 L26.95 14.15 26.3 14.1 Q24.8 12.3 18.35 12.05 14.6 11.9 9.0 13.25 3.8 14.5 4.25 14.65 2.35 14.7 1.05 13.55 -1.6 11.25 2.45 5.85 7.4 -0.2 15.2 0.0 21.1 0.0 23.75 1.05" fill="#560650" fill-rule="evenodd" stroke="none"/>
    </g>
    <g id="sprite8" transform="matrix(1.0, 0.0, 0.0, 1.0, 0.0, 0.0)">
      <use height="16.15" transform="matrix(1.0, 0.0, 0.0, 1.0, 0.0, 0.0)" width="27.65" xlink:href="#shape8"/>
    </g>
    <g id="shape8" transform="matrix(1.0, 0.0, 0.0, 1.0, 0.0, 0.0)">
      <path d="M23.9 12.8 Q25.65 13.85 26.25 15.3 26.9 16.75 24.8 15.75 19.75 13.9 12.5 14.8 L10.1 14.85 Q9.3 14.4 9.0 12.05 18.75 9.8 23.9 12.8" fill="#ff20ee" fill-rule="evenodd" stroke="none"/>
      <path d="M24.95 12.5 Q24.35 11.15 22.1 9.85 19.1 8.15 15.55 7.95 6.65 7.45 3.0 12.95 1.65 12.8 0.8 12.05 -1.3 10.15 2.05 5.4 6.65 -0.3 13.75 0.0 19.25 0.0 21.65 0.95 23.75 1.8 25.5 4.35 28.8 9.45 27.0 11.5 26.45 12.15 25.5 12.4 L24.95 12.5" fill="#ff20ee" fill-rule="evenodd" stroke="none"/>
      <path d="M14.45 8.85 Q21.0 9.0 24.1 12.3 15.25 8.8 3.75 12.75 7.5 8.75 14.45 8.85" fill="#ff20ee" fill-rule="evenodd" stroke="none"/>
    </g>
    <g id="sprite9" transform="matrix(1.0, 0.0, 0.0, 1.0, 0.0, 0.0)">
      <use height="6.55" transform="matrix(1.0, 0.0, 0.0, 1.0, 0.0, 0.0)" width="25.8" xlink:href="#shape9"/>
    </g>
    <g id="shape9" transform="matrix(1.0, 0.0, 0.0, 1.0, 0.0, 0.0)">
      <path d="M4.1 1.85 Q5.75 -1.45 5.2 1.15 4.9 2.85 4.15 3.75 3.75 4.2 3.95 3.0 4.2 1.8 2.85 3.25 -0.3 5.1 2.1 2.25 2.35 2.0 0.65 2.65 -0.7 3.2 0.85 2.1 L3.35 0.2 Q3.4 0.7 2.35 1.75 L3.85 0.7 Q4.85 -0.3 4.65 0.2 4.1 1.55 4.1 1.85" fill="#87328d" fill-rule="evenodd" stroke="none"/>
      <path d="M22.95 2.8 Q22.85 2.15 23.8 3.35 24.55 4.3 24.1 3.3 L25.35 4.55 Q23.65 3.0 25.05 4.85 26.05 6.5 25.75 6.55 25.25 6.65 24.2 5.15 23.25 3.8 22.95 2.8" fill="#87328d" fill-rule="evenodd" stroke="none"/>
    </g>
    <g id="sprite10" transform="matrix(1.0, 0.0, 0.0, 1.0, 0.0, 0.0)">
      <use height="16.1" transform="matrix(1.0, 0.0, 0.0, 1.0, 0.0, 0.0)" width="24.8" xlink:href="#shape10"/>
    </g>
    <g id="shape10" transform="matrix(1.0, 0.0, 0.0, 1.0, 0.0, 0.0)">
      <path d="M13.1 10.95 Q18.3 11.8 20.55 12.85 22.75 13.85 23.4 15.3 24.0 16.7 21.9 15.7 19.1 14.7 15.45 14.5 17.35 13.65 16.95 12.7 16.45 11.6 13.1 10.95" fill="#ca00bb" fill-rule="evenodd" stroke="none"/>
      <path d="M21.8 3.2 Q22.6 4.1 24.25 7.35 25.15 9.05 24.55 10.85 23.9 12.8 22.0 12.6 21.55 11.2 19.25 9.9 16.8 8.5 13.7 8.05 5.6 6.9 0.0 13.0 1.45 10.3 7.85 6.3 13.4 2.85 13.5 0.0 18.7 -0.3 21.8 3.2" fill="#ca00bb" fill-rule="evenodd" stroke="none"/>
      <path d="M21.2 12.25 Q15.9 10.1 9.65 10.7 18.5 9.15 7.9 9.1 L12.7 8.8 Q18.1 9.15 21.2 12.25" fill="#ca00bb" fill-rule="evenodd" stroke="none"/>
    </g>
    <g id="sprite11" transform="matrix(1.0, 0.0, 0.0, 1.0, 0.0, 0.0)">
      <use height="6.25" transform="matrix(1.0, 0.0, 0.0, 1.0, 0.0, 0.0)" width="9.6" xlink:href="#shape11"/>
    </g>
    <g id="shape11" transform="matrix(1.0, 0.0, 0.0, 1.0, 0.0, 0.0)">
      <path d="M0.0 6.25 Q1.2 3.55 5.1 1.45 8.75 -0.55 9.6 0.25 4.4 2.8 0.0 6.25" fill="#fcd0f2" fill-rule="evenodd" stroke="none"/>
    </g>
  </defs>
</svg>
